X:1
T:Our Day of Joy is Here Again
T:Our Day of Joy is Here Again
T:Cory
T:Andrew Skoog
C:Cory
Z:Andrew Skoog
%%score 1 { 2 | 3 }
L:1/8
Q:1/4=90
M:4/4
K:C
V:1 treble-8 nm="Tenor" snm="T."
V:2 treble nm="Piano" snm="Pno."
V:3 bass 
V:1
 z2 z2 z2 z A | c>d e>d e>c e>c | d>e d>c A3 G | A>c d>e d>c e>c | d>e d>G A2 z2 | %5
w: Our|day of joy is here a- gain, with|love and peace and song; Come,|let us join th'an- gel- ic strain with|voi- ces clear and strong.|
 A2 !tenuto!c<d d>c e2 | d>c d>e d>c A2 | A>G A>c d>e d>c |"^rit..." e2 d2 c2 G2 | A8 |] %10
w: Glo- ry to God, we sing,|Glo- ry to our Lord and King;|Peace, good- will with all a- bide This|ho- ly Christ- mas|tide.|
V:2
 z8 | [CEG]8 | [DGB]8 | [CEA]8 | [DGB]4 [CEA]4 | [DFA]8 | [DGB]8 | [CEA]8 | [CEG]4 [B,DG]4 | %9
 [A,CEA]8 |] %10
V:3
 z8 | [C,C]8 | [G,,G,]8 | [A,,A,]8 | [G,,G,]4 [A,,A,]4 | [D,D]8 | [G,,G,]8 | [A,,A,]8 | %8
 [C,C]4 [G,,G,]4 | [A,,A,]8 |] %10

